X:108
T:Peggy's Wedding Day. LW.108
M:6/8
Q:3/8=120
L:1/8
B:Lionel Winship MS, 1833, Wark, Northumberland
Z:Village Music Project 2017 Anne Wride
K:C
G |: cdc c2c | ceg gec | cdc cdc | Bcd dBG |
cdc c2c | ceg gec | afd gec | B2c dBG :|
|: cdc g2c | e2cg2c | cdc g2c | Bcd dBG |
cdc gcc | ecc gcc | afd gec | B2c dBG :|

